app/dist/common/images/integrated-wellness-acquisition-redeemable.svg

<svg height="18" viewBox="0 0 18 18" width="18" xmlns="http://www.w3.org/2000/svg"><path d="m0 0h18v18h-18z" fill="#f0f3fa"/><path d="m4.55 12v-6h-1.55v6zm1.45-6 2.06 6h1.64l1.27-3.62h.06l1.27 3.62h1.65l2.05-6h-1.88l-1.07 3.92h-.06l-1.22-3.92h-1.54l-1.22 3.91h-.06l-1.05-3.91z" fill="#011f4b"/></svg>

<!-- by TradingView --><svg width="18" height="18" viewBox="0 0 18 18" xmlns="http://www.w3.org/2000/svg"><path fill="#F0F3FA" d="M0 0h18v18H0z"/><path d="M4.55 12V6H3v6h1.55ZM6 6l2.06 6H9.7l1.27-3.62h.06L12.3 12h1.65L16 6h-1.88l-1.07 3.92h-.06L11.77 6h-1.54L9.01 9.91h-.06L7.9 6H6Z" fill="#011F4B"/></svg>
